X:1
T:Title
%%score { ( 1 3 ) | ( 2 4 ) }
L:1/8
M:4/4
K:Bb
V:1 treble nm="Grand Piano"
V:3 treble 
V:2 bass 
V:4 bass 
V:1
 z4 z2[Q:1/4=106] F>F | [DFd]2 [DFA]2 [DFc]2 [DFB]2 | [B,DG]4[K:bass] z4 | %3
 B,>[K:treble]C D>E F2 [DB]2 | [EA]6 z2 | [Ee]2 [E=B]2 [Ed]2 [Ec]2 | [A,EA]4[K:bass][K:treble] z4 | %7
 E>D E>F A2 G2 | [B,D]6 F>F | [DFd]2 [DFA]2 [DFc]2 [DFB]2 | [B,DG]4[K:bass] z4 | %11
 B,>[K:treble]C D>E F2 [B,D^F]2 | G6 z2 | B6 z2 | B6 z2 | d4 c4 |[M:3/4] [B,DB]6 |[M:1/4] z2 | %18
[M:4/4] [A,EG]4 [A,EF]4 | [EAe]2 [EAe]4 G>A | [B,DG]4 [B,DF]4 |[M:3/4] [FBd]6 | %22
[M:1/4] [B,FB]>[Fc] |[M:4/4] B2 A2 A2 G>A | [DG]2 [DF]2 [DF]2 [Fd]2 | c4 G4 |[M:3/4] c6 | %27
[M:1/4] z2 |[M:4/4] [A,EG]4 [A,EF]4 | [EAe]2 [EAe]4 G>A | [B,DG]4 [B,DF]4 |[M:3/4] [FBd]6 | %32
[M:1/4] [B,FB]>c |[M:4/4] d2 c2 B2 [Gc]>[Gd] | [Ge]2 [Gd]2 [Gc]2 [GB]2 | d4 c4 | %36
[M:3/4] [B,DB]6[K:bass] |] %37
V:2
 z8 | [B,,F,]2 [F,,F,]2 [B,,F,]2 [F,,F,]2 | [B,,F,]2 F,,2 B,,2 D,>C, | B,,>C, D,>E, F,2 [B,,F,]2 | %4
 [C,F,]2 A,,2 G,,2 [F,,F,]2 | [C,F,]2 [F,,F,]2 [C,F,]2 [F,,F,]2 | [C,F,]2 z2 [C,F,A,]2 C,>D, | %7
 E,>D, E,>F, A,2 G,2 | B,,2 (3D,E,F, G,2 F,2 | [B,,F,]2 [F,,F,]2 [B,,F,]2 [F,,F,]2 | %10
 [B,,F,]2 F,,2 B,,2 D,>C, | B,,>C, D,>E, F,2 B,,2 | [E,B,E]2 [D,=B,]2 [C,C]2 z2 | %13
 z2 [=E,G,]>[E,G,] [E,G,]2 z2 | z2 [F,B,]>[F,B,] [F,B,]2 D,2 | B,2 B,2 [A,E]2 A,2 | %16
[M:3/4] z2 (3D,E,F, B,,2 |[M:1/4][K:treble] F>F |[M:4/4][K:bass] C,2 F,2 F,,2 F,2 | %19
 C,2 F,2 F,,2 [F,B,E]2 | B,,2 F,2 F,,2 F,2 |[M:3/4] (3B,,D,E, (3F,G,A, B,2 |[M:1/4] D,>[D,B,] | %23
[M:4/4] [F,CE]2 [F,CE]2 [F,CE]2 [F,CE]>[F,CE] | [B,,B,]2 [B,,B,]2 [B,,B,]2 [=B,,_A,]2 | %25
 A,2 A,2 z2 B,2 |[M:3/4] E2- [G,E-]2 [A,E]2 |[M:1/4][K:treble] F>F | %28
[M:4/4][K:bass] C,2 F,2 F,,2 F,2 | C,2 F,2 F,,2 [F,B,E]2 | B,,2 F,2 F,,2 F,2 | %31
[M:3/4] (3B,,D,E, (3F,G,A, B,2 |[M:1/4] D,>[K:treble][F,A,F] | %33
[M:4/4] [B,F]2[K:bass] [F,A,E]2 [G,B,D]2 [E,E]>[D,=B,] | [C,C]2 [D,=B,]2 [E,C]2 [=E,C]2 | %35
 [B,F]2 B,2 [A,E]2 A,2 |[M:3/4] B,,4 z2 |] %37
V:3
 x8 | x8 | z2[K:bass] F,2 [F,B,DF]2 D>C | x3/2[K:treble] x13/2 | z2 A,2 G,2 [EF]>[EF] | x8 | %6
 z2[K:bass] [F,,F,]2[K:treble] [EG]2 C>D | x8 | x8 | x8 | z2[K:bass] F,2 [F,B,DF]2 D>C | %11
 x3/2[K:treble] x13/2 | z2 F2 E2 ^F>G | z2 _D>D D2 ^F>G | z2 D>D D2 F2 | =E2 E2 z2 _E2 | %16
[M:3/4] x6 |[M:1/4] x2 |[M:4/4] x8 | x8 | x8 |[M:3/4] x6 |[M:1/4] x2 |[M:4/4] x8 | x8 | %25
 F2 F2 [B,=E]2 E2 |[M:3/4] z2 B,2 C2 |[M:1/4] x2 |[M:4/4] x8 | x8 | x8 |[M:3/4] x6 |[M:1/4] x2 | %33
[M:4/4] x8 | x8 | z2 F2 z2 E2 |[M:3/4] z2[K:bass] F,2 B,,2 |] %37
V:4
 x8 | x8 | x8 | x8 | x8 | x8 | x8 | x8 | x8 | x8 | x8 | x8 | x8 | x8 | x8 | C,4 F,4 | %16
[M:3/4] B,,4 z2 |[M:1/4][K:treble] x2 |[M:4/4][K:bass] x8 | x8 | x8 |[M:3/4] x6 |[M:1/4] x2 | %23
[M:4/4] x8 | x8 | C,4 C,4 |[M:3/4] [F,A,]2 z2 z2 |[M:1/4][K:treble] x2 |[M:4/4][K:bass] x8 | x8 | %30
 x8 |[M:3/4] x6 |[M:1/4] x3/2[K:treble] x/ |[M:4/4] x2[K:bass] x6 | x8 | F,4 F,4 | %36
[M:3/4] z2 F,,2 B,,,2 |] %37

